icons/EmojiLaugh_filled.svg

<svg width="24" height="24" viewBox="0 0 24 24" fill="none" xmlns="http://www.w3.org/2000/svg">
<path fill-rule="evenodd" clip-rule="evenodd" d="M2.25,12c0,-5.38478 4.36522,-9.75 9.75,-9.75c5.3848,0 9.75,4.36522 9.75,9.75c0,5.3848 -4.3652,9.75 -9.75,9.75c-5.38478,0 -9.75,-4.3652 -9.75,-9.75zM8.25,9c-0.69036,0 -1.25,0.55964 -1.25,1.25c0,0.6904 0.55964,1.25 1.25,1.25c0.69036,0 1.25,-0.5596 1.25,-1.25c0,-0.69036 -0.55964,-1.25 -1.25,-1.25zM15.75,11.5c0.6904,0 1.25,-0.5596 1.25,-1.25c0,-0.69036 -0.5596,-1.25 -1.25,-1.25c-0.6904,0 -1.25,0.55964 -1.25,1.25c0,0.6904 0.5596,1.25 1.25,1.25zM8.62331,14.5c-0.31988,0 -0.55832,0.2995 -0.45151,0.601c1.31021,3.6987 6.3462,3.6987 7.6564,0c0.1068,-0.3015 -0.1316,-0.601 -0.4515,-0.601z" fill="#002B51"/>
</svg>

<svg width="24" height="24" viewBox="0 0 24 24" fill="none" xmlns="http://www.w3.org/2000/svg">
<path fill-rule="evenodd" clip-rule="evenodd" d="M2.25 12C2.25 6.61522 6.61522 2.25 12 2.25C17.3848 2.25 21.75 6.61522 21.75 12C21.75 17.3848 17.3848 21.75 12 21.75C6.61522 21.75 2.25 17.3848 2.25 12ZM9.5 10.25C9.5 10.9404 8.94036 11.5 8.25 11.5C7.55964 11.5 7 10.9404 7 10.25C7 9.55964 7.55964 9 8.25 9C8.94036 9 9.5 9.55964 9.5 10.25ZM15.75 11.5C16.4404 11.5 17 10.9404 17 10.25C17 9.55964 16.4404 9 15.75 9C15.0596 9 14.5 9.55964 14.5 10.25C14.5 10.9404 15.0596 11.5 15.75 11.5ZM8.62331 14.5C8.30343 14.5 8.06499 14.7995 8.1718 15.101C9.48201 18.7997 14.518 18.7997 15.8282 15.101C15.935 14.7995 15.6966 14.5 15.3767 14.5H8.62331Z" fill="#002B51"/>
</svg>
